src/assets/outline/Blend.svg

<svg width="24" height="24" viewBox="0 0 24 24"  xmlns="http://www.w3.org/2000/svg">
<path d="M15.9702 18.75C14.3002 18.75 12.7002 18.13 11.4702 17.02C11.3102 16.88 11.2202 16.67 11.2202 16.46C11.2202 16.25 11.3102 16.04 11.4702 15.9C12.5802 14.92 13.2202 13.5 13.2202 12C13.2202 10.5 12.5802 9.08 11.4702 8.1C11.3102 7.96 11.2202 7.76 11.2202 7.54C11.2202 7.33 11.3102 7.12 11.4702 6.98C12.7102 5.86 14.3002 5.25 15.9702 5.25C19.6902 5.25 22.7202 8.28 22.7202 12C22.7202 15.72 19.7002 18.75 15.9702 18.75ZM13.1002 16.39C13.9502 16.95 14.9402 17.25 15.9802 17.25C18.8702 17.25 21.2302 14.89 21.2302 12C21.2302 9.11 18.8702 6.75 15.9802 6.75C14.9502 6.75 13.9502 7.05 13.1002 7.61C14.1402 8.82 14.7302 10.37 14.7302 12C14.7302 13.63 14.1402 15.18 13.1002 16.39Z" />
<path d="M7.97021 18.75C4.25021 18.75 1.22021 15.72 1.22021 12C1.22021 8.28 4.25021 5.25 7.97021 5.25C9.64021 5.25 11.2402 5.87 12.4702 6.98C13.8902 8.24 14.7202 10.07 14.7202 12C14.7202 13.93 13.9002 15.75 12.4702 17.02C11.2402 18.13 9.64021 18.75 7.97021 18.75ZM7.97021 6.75C5.08021 6.75 2.72021 9.11 2.72021 12C2.72021 14.89 5.08021 17.25 7.97021 17.25C9.27022 17.25 10.5102 16.77 11.4702 15.9C12.5902 14.91 13.2202 13.49 13.2202 12C13.2202 10.51 12.5802 9.08 11.4702 8.1C10.5102 7.23 9.27022 6.75 7.97021 6.75Z" />
</svg>

<?xml version="1.0" encoding="UTF-8"?>
<svg width="24" height="24" viewBox="0 0 24 24" xmlns="http://www.w3.org/2000/svg">
 <path d="m15.97 18.75c-1.67 0-3.27-0.62-4.5-1.73-0.16-0.14-0.25-0.35-0.25-0.56s0.09-0.42 0.25-0.56c1.11-0.98 1.75-2.4 1.75-3.9s-0.64-2.92-1.75-3.9c-0.16-0.14-0.25-0.34-0.25-0.56 0-0.21 0.09-0.42 0.25-0.56 1.24-1.12 2.83-1.73 4.5-1.73 3.72 0 6.75 3.03 6.75 6.75s-3.02 6.75-6.75 6.75zm-2.87-2.36c0.85 0.56 1.84 0.86 2.88 0.86 2.89 0 5.25-2.36 5.25-5.25s-2.36-5.25-5.25-5.25c-1.03 0-2.03 0.3-2.88 0.86 1.04 1.21 1.63 2.76 1.63 4.39s-0.59 3.18-1.63 4.39z"/>
 <path d="m7.9702 18.75c-3.72 0-6.75-3.03-6.75-6.75s3.03-6.75 6.75-6.75c1.67 0 3.27 0.62 4.5 1.73 1.42 1.26 2.25 3.09 2.25 5.02s-0.82 3.75-2.25 5.02c-1.23 1.11-2.83 1.73-4.5 1.73zm0-12c-2.89 0-5.25 2.36-5.25 5.25s2.36 5.25 5.25 5.25c1.3 0 2.54-0.48 3.5-1.35 1.12-0.99 1.75-2.41 1.75-3.9s-0.64-2.92-1.75-3.9c-0.96-0.87-2.2-1.35-3.5-1.35z"/>
</svg>
